X:1
T:6 Gesänge, Op.14
T:Frage nicht
T:6 Gesänge, Op.14 
T:6. Frage nicht Ask me not
T:Robert Franz
T:Nikolaus Lenau (trans. E. S. Willcox)
T:OpenScore (CC0)
T:OpenScore (CC0)
T:OpenScore (CC0)
C:Robert Franz
Z:Nikolaus Lenau
Z:OpenScore (CC0)
%%score ( 1 2 ) { ( 3 5 ) | 4 }
L:1/8
Q:1/4=80
M:3/4
K:C
V:1 treble nm="Singstimme\nVoice\n"
V:2 treble 
V:3 treble nm="Pianoforte"
V:5 treble 
V:4 bass 
V:1
"^Ziemlich schnell""^Leidenschaftlich" z2 z2!mf! E E/ E/ | (D2 G) z"^cresc." F F/ F/ | %2
w: Wie sehr  ich|Dein, _ soll ich Dir|
w: How tru- ly|thine, _ how deep  the|
 E2 A A!f! _B B | (c2 A) A _B B | c2 A z!mf! F2 | d =B G3/2"^cresc." G/ G G | e2 A z/ A/ A A | %7
w: sa- gen? Ich weiss es|nicht, _ und will nicht|fra- gen: mein|Herz be- hal- te sei- ne|Kun- de, wie sehr es|
w: feel- ing, I do not|know, _ 'tis past re-|veal- ing. Nay|ask me not in vain en-|deav- our How tru- ly|
!f! (fed)!>(! c B d!>)! |!p! (G2 F2) E z | z2 z3/2!mf! F/ E E | (D2 G)"^cresc." G F F | %11
w: Dein, _ _ ja Dein im|Grun- * de.|O still! ich|möch- * te sonst er-|
w: thine _ _ I am for|ev- * er.|O trou- bled|thought, _ my bo- som|
 E2 A z!f! _B B/ B/ | c2 A z _B B | c2 A z!mf! F2 | d =B"^cresc." G3/2 G/ G G | e2 A z/ A/ A A | %16
w: schre- cken, könnt' ich die|Stel- le nicht ent-|de- cken, die|un- zer- stört für Gott ver-|blie- be beim To- de|
w: pain- ing; How small a|place were still re-|main- ing With-|in my heart for God a-|bove me, If thou shouldst|
!f! (fed)!>(! c B d!>)! |!p! (G2 F2)[Q:1/4=65]"^riten." E D/ C/ | (F4!>(! B,2) | %19
w: Dei- * * ner, Dei- ner|Lie- * be, Dei- ner|Lie- *|
w: ev- * * er cease to|love _ me, cease to|love _|
[Q:1/4=60] C2!>)! z2 z2 |] %20
w: be.|
w: me.|
V:2
 x6 | x6 | x6 | x6 | x6 | x6 | x6 | x6 | x6 | x6 | x6 | x6 | x2 A2 x2 | x6 | x6 | x6 | x6 | x6 | %18
 x6 | x6 |] %20
V:3
!mf! [G,CE]/!<(![G,CE]/[G,CE]/[G,CE]/ [G,CE]/[G,CE]/[G,CE]/[G,CE]/ [G,CE]/[G,CE]/[G,CE]/[G,CE]/ | %1
 [G,CD]/!<)![G,CD]/[G,CD]/[G,CD]/!>(! [_B,DG]/[B,DG]/[B,DG]/[B,DG]/!>)!"_cresc."!<(! [A,DF]/[A,DF]/[A,DF]/[A,DF]/ | %2
 [A,DE]/[A,DE]/[A,DE]/!<)!!ff![A,DE]/!>(! [CEA]/[CEA]/[CEA]/[CEA]/!>)!!f!!<(! [DF_B]/[DFB]/[DFB]/[DFB]/!<)! | %3
 [E_Bc]/!>(![EBc]/[EBc]/[EBc]/ [CFA]/[CFA]/[CFA]/!>)![CFA]/!<(! [DFB]/[DFB]/[DFB]/[DFB]/ | %4
 [E_Bc]/[EBc]/[EBc]/[EBc]/!<)!!>(! [CFA]/[CFA]/[CFA]/[CFA]/ [CFA]/!>)!!mf![CFA]/[CFA]/[CFA]/ | %5
 [FAd]/[FAd]/[FAd]/[FAd]/ [=B,FG]/[B,FG]/[B,FG]/"_cresc."[B,FG]/ [CFG]/[CFG]/[DFG]/[DFG]/ | %6
 [EG]/[EG]/[DG]/[DG]/ [CGA]/[CGA]/[CGA]/[CGA]/ [DGA]/[DGA]/[EGA]/[EGA]/ | %7
!f! [FA]/[FA]/[EFA]/[EFA]/ [DFA]/[DFA]/[CFA]/[CFA]/!>(! [B,FB]/[B,FB]/[B,DG]/[B,DG]/!>)! | %8
!p! (G2 F2!<(! E)(D/C/!<)! | E2 D2!p! !>!C/)[G,CE]/[G,CE]/[G,CE]/ | %10
!<(! [G,CD]/[G,CD]/[G,CD]/[G,CD]/!<)!!>(! [_B,DG]/[B,DG]/[B,DG]/!>)![B,DG]/!<(! [A,DF]/[A,DF]/[A,DF]/[A,DF]/!<)! | %11
 [A,DE]/[A,DE]/[A,DE]/[A,DE]/!>(! [CEA]/[CEA]/[CEA]/[CEA]/!>)!!f!!<(! [DF_B]/[DFB]/[DFB]/[DFB]/ | %12
 [E_Bc]/!<)![EBc]/[EBc]/[EBc]/!>(! [CFA]/[CFA]/[CFA]/[CFA]/!>)!!<(! [DFB]/[DFB]/[DFB]/[DFB]/!<)! | %13
 [E_Bc]/[EBc]/[EBc]/[EBc]/!>(! [CFA]/[CFA]/[CFA]/[CFA]/!>)!!mf! [CFA]/[CFA]/[CFA]/[CFA]/ | %14
 [FAd]/[FAd]/[FAd]/[FAd]/"_cresc." [=B,FG]/[B,FG]/[B,FG]/[B,FG]/ [CFG]/[CFG]/[DFG]/[DFG]/ | %15
 [EG]/[EG]/[DG]/[DG]/ [CGA]/[CGA]/[CGA]/[CGA]/ [DGA]/[DGA]/[EGA]/[EGA]/ | %16
!f! [FA]/[FA]/[EFA]/[EFA]/ [DFA]/[DFA]/!>(![CFA]/[CFA]/ [B,FB]/[B,FB]/[B,DG]/[B,DG]/!>)! | %17
!p! (G2 F2"^riten." [CE])([^G,B,D]/[A,C]/ |!<(! [CF]4 [=G,-B,]2!<)! | %19
!>(! [E,G,C]2- [E,G,C])!>)! z z2 |] %20
V:4
"_con Pedale"!ped! [C,E,]/[C,E,]/[C,E,]/[C,E,]/ [C,E,]/[C,E,]/[C,E,]/[C,E,]/ [C,E,]/[C,E,]/[C,E,]/[C,E,]/!ped-up! | %1
!ped! [G,,C,D,]/[G,,C,D,]/[G,,C,D,]/[G,,C,D,]/!ped-up!!ped! [_B,,D,G,]/[B,,D,G,]/[B,,D,G,]/[B,,D,G,]/!ped-up!!ped! [D,F,]/[D,F,]/[D,F,]/[D,F,]/!ped-up! | %2
 [A,,D,E,]/[A,,D,E,]/[A,,D,E,]/[A,,D,E,]/ [C,E,A,]/[C,E,A,]/[C,E,A,]/[C,E,A,]/ [D,F,_B,]/[D,F,B,]/[D,F,B,]/[D,F,B,]/ | %3
 [C,G,_B,]/[C,G,B,]/[C,G,B,]/[C,G,B,]/ [F,A,]/[F,A,]/[F,A,]/[F,A,]/ [D,F,B,]/[D,F,B,]/[D,F,B,]/[D,F,B,]/ | %4
 [C,G,_B,]/[C,G,B,]/[C,G,B,]/[C,G,B,]/ [F,A,]/[F,A,]/[F,A,]/[F,A,]/ [F,A,]/[F,A,]/[F,A,]/[F,A,]/ | %5
 ([=B,,,=B,,][D,,D,][G,,G,])([G,,,G,,][A,,,A,,][B,,,B,,]) | %6
 ([D,,D,][E,,E,][A,,A,])([A,,,A,,][B,,,B,,][C,,C,] | %7
 [D,,D,])([C,,C,][B,,,B,,][A,,,A,,][G,,,G,,][F,,,F,,] | %8
 [E,,,E,,]2 [D,,,D,,]2 [C,,,C,,])([E,,,E,,] | [G,,,G,,]4 [C,,,C,,]/) [C,E,]/[C,E,]/[C,E,]/ | %10
 [G,,C,D,]/[G,,C,D,]/[G,,C,D,]/[G,,C,D,]/ [_B,,D,G,]/[B,,D,G,]/[B,,D,G,]/[B,,D,G,]/ [D,F,]/[D,F,]/[D,F,]/[D,F,]/ | %11
 [A,,D,E,]/[A,,D,E,]/[A,,D,E,]/[A,,D,E,]/ [C,E,A,]/[C,E,A,]/[C,E,A,]/[C,E,A,]/ [D,G,_B,]/[D,G,B,]/[D,G,B,]/[D,G,B,]/ | %12
 [C,G,_B,]/[C,G,B,]/[C,G,B,]/[C,G,B,]/ [F,A,]/[F,A,]/[F,A,]/[F,A,]/ [D,F,B,]/[D,F,B,]/[D,F,B,]/[D,F,B,]/ | %13
 [C,G,_B,]/[C,G,B,]/[C,G,B,]/[C,G,B,]/ [F,A,]/[F,A,]/[F,A,]/[F,A,]/ [F,A,]/[F,A,]/[F,A,]/[F,A,]/ | %14
 ([=B,,,=B,,][D,,D,][G,,G,])([G,,,G,,][A,,,A,,][B,,,B,,]) | %15
 ([C,,C,][E,,E,][A,,A,])([A,,,A,,][B,,,B,,][C,,C,]) | %16
 ([D,,D,][C,,C,][B,,,B,,][A,,,A,,][G,,,G,,][F,,,F,,] | %17
 [E,,,E,,]2 [F,,,F,,]2 [C,,C,])([E,,,E,,]/[A,,,A,,]/ | [D,,,D,,]4 [G,,,G,,]2 | %19
 [C,,,C,,]2- [C,,,C,,]) z z2 |] %20
V:5
 x6 | x6 | x6 | x6 | x6 | x6 | x6 | x6 | %8
 z/ [G,C]/[G,C]/!p!!>(![G,C]/ z/ [G,B,]/[G,B,]/!>)![G,B,]/ z/ G,/-G, | %9
 z/!>(! [G,C]/[G,C]/[G,C]/ z/!>)!!pp! [F,B,]/[F,B,]/[F,B,]/[I:staff +1] [E,G,]/[I:staff -1] x/ x | %10
 x6 | x6 | x6 | x6 | x6 | x6 | x6 | %17
 z/ [G,C]/[G,C]/[G,C]/ z/ [G,B,]/[G,B,]/[G,B,]/ G,[I:staff +1]E, |[I:staff -1] F,6 | x6 |] %20

